resources/haticons/SVG/list.svg

<!-- Generated by IcoMoon.io -->
<svg version="1.1" xmlns="http://www.w3.org/2000/svg" width="24" height="24" viewBox="0 0 24 24">
<title>list</title>
<path d="M0 0h6v6h-6zM9 1.5h15v3h-15zM0 9h6v6h-6zM9 10.5h15v3h-15zM0 18h6v6h-6zM9 19.5h15v3h-15z"></path>
</svg>

<svg xmlns="http://www.w3.org/2000/svg" width="24" height="24"><path d="M0 0h6v6H0zm9 1.5h15v3H9zM0 9h6v6H0zm9 1.5h15v3H9zM0 18h6v6H0zm9 1.5h15v3H9z"/></svg>
